assets/daf/mono.svg

<svg viewBox="0 0 24 24" xmlns="http://www.w3.org/2000/svg"><path d="m19.649 12.782h-2.643v-4.059h6.994v1.183h-4.351v.723h4.277v1.147h-4.277zm-7.51-3.039-1.831 3.05h-2.548l2.414-4.07h3.924l2.424 4.07h-5.364l.64-1.06h1.534zm-12.135 3.042v-4.044h4.99c1.62 0 2.773.738 2.773 1.994 0 1.196-.914 2.05-2.82 2.05zm4.008-1.034c.621 0 .985-.53.985-.935 0-.413-.325-.896-.967-.896h-1.359v1.831zm-4.012 1.98h23.926v1.546h-23.926z"/></svg>

<svg xmlns="http://www.w3.org/2000/svg" viewBox="0 0 24 24"><path d="M19.649 12.782h-2.643V8.723H24v1.183h-4.351v.723h4.277v1.147h-4.277zm-7.51-3.039-1.831 3.05H7.76l2.414-4.07h3.924l2.424 4.07h-5.364l.64-1.06h1.534zM.004 12.785V8.741h4.99c1.62 0 2.773.738 2.773 1.994 0 1.196-.914 2.05-2.82 2.05zm4.008-1.034c.621 0 .985-.53.985-.935 0-.413-.325-.896-.967-.896H2.671v1.831zM0 13.731h23.926v1.546H0z"/></svg>
